16x16/apps/JForex.svg

<svg xmlns="http://www.w3.org/2000/svg" width="16" height="16" version="1.1">
 <circle style="fill:#8c2330" cx="8" cy="8" r="8"/>
 <path style="fill:#f4f4f7" d="M 10.980469 0.58203125 C 9.6477209 1.9904649 8.8192586 3.4976133 8.421875 5.2089844 C 7.9092903 7.4164801 7.9931549 9.6292527 8.0410156 13 L 11.039062 13 C 11.011542 11.061655 11.153874 10.299068 11.212891 9 L 13 9 L 13 6 L 11.339844 6 C 11.345544 5.974397 11.33785 5.912005 11.34375 5.8867188 C 11.670527 4.4794436 12.262392 3.4627635 13.558594 2.2578125 C 13.556612 2.2558917 13.554718 2.2538717 13.552734 2.2519531 C 13.36881 2.0740613 13.175963 1.9050308 12.976562 1.7460938 C 12.775012 1.5854425 12.567416 1.4352272 12.351562 1.2949219 C 12.135709 1.1546165 11.912235 1.0252241 11.683594 0.90625 C 11.454953 0.7872759 11.220381 0.67868876 10.980469 0.58203125 z M 7 2.984375 L 4 3.015625 C 4.049978 7.5324034 3.8861604 9.5847042 3.5195312 10.566406 C 3.3362168 11.057258 3.1339634 11.346461 2.7167969 11.78125 C 2.4692858 12.039217 2.0213561 12.439142 1.6152344 12.808594 A 8 8 0 0 0 3.8515625 14.830078 C 4.2102472 14.503373 4.5709952 14.180375 4.8808594 13.857422 C 5.4670946 13.246423 5.9926595 12.518722 6.3300781 11.615234 C 7.0049154 9.8082609 7.0505988 7.5572916 7 2.984375 z"/>
</svg>

<svg xmlns="http://www.w3.org/2000/svg" width="16" height="16"><circle style="fill:#8c2330" cx="8" cy="8" r="8"/><path style="fill:#f4f4f7" d="M10.98.582C9.648 1.99 8.82 3.498 8.422 5.209 7.909 7.416 7.993 9.629 8.04 13h2.998c-.027-1.938.115-2.7.174-4H13V6h-1.66c.006-.026-.002-.088.004-.113.327-1.408.918-2.424 2.215-3.63l-.006-.005A8.017 8.017 0 0 0 10.98.582zM7 2.984l-3 .032c.05 4.516-.114 6.569-.48 7.55-.184.491-.386.78-.803 1.215-.248.258-.696.658-1.102 1.028a8 8 0 0 0 2.237 2.021c.358-.327.719-.65 1.029-.973.586-.61 1.112-1.338 1.45-2.242.674-1.807.72-4.058.669-8.63z"/></svg>
